hotel_opt.svg

<svg width="19" height="19" viewBox="0 0 19 19" fill="none" xmlns="http://www.w3.org/2000/svg">
<path d="M4.7785 4.58603H3.18567C3.00833 4.58603 2.869 4.72853 2.869 4.9027V6.4987C2.869 6.67287 3.00833 6.81537 3.18567 6.81537H4.7785C4.95583 6.81537 5.09517 6.67287 5.09517 6.4987V4.9027C5.09517 4.72853 4.95583 4.58603 4.7785 4.58603Z" fill="black"/>
<path d="M7.771 4.58603H6.17817C6.00328 4.58603 5.8615 4.72781 5.8615 4.9027V6.4987C5.8615 6.67359 6.00328 6.81537 6.17817 6.81537H7.771C7.94589 6.81537 8.08767 6.67359 8.08767 6.4987V4.9027C8.08767 4.72781 7.94589 4.58603 7.771 4.58603Z" fill="black"/>
<path d="M10.7667 4.58603H9.17067C8.99578 4.58603 8.854 4.72781 8.854 4.9027V6.4987C8.854 6.67359 8.99578 6.81537 9.17067 6.81537H10.7667C10.9416 6.81537 11.0833 6.67359 11.0833 6.4987V4.9027C11.0833 4.72781 10.9416 4.58603 10.7667 4.58603Z" fill="black"/>
<path d="M10.4848 11.8219H12.0808C12.255 11.8219 12.3975 11.6825 12.3975 11.5052V9.91237C12.3975 9.73503 12.255 9.5957 12.0808 9.5957H10.4848C10.3107 9.5957 10.1682 9.73503 10.1682 9.91237V11.5052C10.1682 11.6825 10.3107 11.8219 10.4848 11.8219Z" fill="black"/>
<path d="M15.0733 9.5957H13.4773C13.3024 9.5957 13.1607 9.73748 13.1607 9.91237V11.5052C13.1607 11.6801 13.3024 11.8219 13.4773 11.8219H15.0733C15.2482 11.8219 15.39 11.6801 15.39 11.5052V9.91237C15.39 9.73748 15.2482 9.5957 15.0733 9.5957Z" fill="black"/>
<path d="M10.4848 15.1722H12.0808C12.255 15.1722 12.3975 15.0329 12.3975 14.8555V13.2627C12.3975 13.0854 12.255 12.946 12.0808 12.946H10.4848C10.3107 12.946 10.1682 13.0854 10.1682 13.2627V14.8555C10.1682 15.0329 10.3107 15.1722 10.4848 15.1722Z" fill="black"/>
<path d="M15.0733 12.946H13.4773C13.3024 12.946 13.1607 13.0878 13.1607 13.2627V14.8555C13.1607 15.0304 13.3024 15.1722 13.4773 15.1722H15.0733C15.2482 15.1722 15.39 15.0304 15.39 14.8555V13.2627C15.39 13.0878 15.2482 12.946 15.0733 12.946Z" fill="black"/>
<path d="M4.7785 8.09154H3.18567C3.00833 8.09154 2.869 8.23087 2.869 8.4082V10.001C2.869 10.1752 3.00833 10.3177 3.18567 10.3177H4.7785C4.95583 10.3177 5.09517 10.1752 5.09517 10.001V8.4082C5.09517 8.23087 4.95583 8.09154 4.7785 8.09154Z" fill="black"/>
<path d="M7.771 8.09154H6.17817C6.00328 8.09154 5.8615 8.23331 5.8615 8.4082V10.001C5.8615 10.1759 6.00328 10.3177 6.17817 10.3177H7.771C7.94589 10.3177 8.08767 10.1759 8.08767 10.001V8.4082C8.08767 8.23331 7.94589 8.09154 7.771 8.09154Z" fill="black"/>
<path d="M18.6833 16.7144H17.0462V7.73687C17.0462 7.5627 16.9037 7.4202 16.7295 7.4202H12.4862V2.5372C12.9295 2.4802 13.2778 2.10337 13.2778 1.6442V1.10587C13.2778 0.605528 12.8725 0.200195 12.3722 0.200195H1.577C1.07983 0.200195 0.671333 0.605528 0.671333 1.10587V1.6442C0.671333 2.10337 1.01967 2.4802 1.463 2.5372V16.7144H0.316667C0.1425 16.7144 0 16.8569 0 17.031V18.4972C0 18.6745 0.1425 18.8139 0.316667 18.8139H18.6833C18.8575 18.8139 19 18.6745 19 18.4972V17.031C19 16.8569 18.8575 16.7144 18.6833 16.7144ZM4.19583 11.9232C4.0185 11.9232 3.87917 12.0657 3.87917 12.2399V16.7144H2.09633V2.54987H11.8528V7.4202H8.82867C8.6545 7.4202 8.512 7.5627 8.512 7.73687V11.9232H4.19583ZM16.4128 8.05353V16.7144H9.14533V8.05353H16.4128Z" fill="black"/>
</svg>

<svg width="19" height="19" fill="none" xmlns="http://www.w3.org/2000/svg">
    <path d="M4.779 4.586H3.186a.316.316 0 0 0-.317.317v1.596c0 .174.14.316.317.316h1.593a.316.316 0 0 0 .316-.316V4.903a.316.316 0 0 0-.316-.317ZM7.771 4.586H6.178a.317.317 0 0 0-.316.317v1.596c0 .175.141.316.316.316h1.593a.317.317 0 0 0 .317-.316V4.903a.317.317 0 0 0-.317-.317ZM10.767 4.586H9.17a.317.317 0 0 0-.317.317v1.596c0 .175.142.316.317.316h1.596a.317.317 0 0 0 .316-.316V4.903a.317.317 0 0 0-.316-.317ZM10.485 11.822h1.596c.174 0 .317-.14.317-.317V9.912a.316.316 0 0 0-.317-.316h-1.596a.316.316 0 0 0-.317.316v1.593c0 .177.143.317.317.317ZM15.073 9.596h-1.596a.317.317 0 0 0-.316.316v1.593c0 .175.141.317.316.317h1.596a.317.317 0 0 0 .317-.317V9.912a.317.317 0 0 0-.317-.316ZM10.485 15.172h1.596c.174 0 .317-.14.317-.317v-1.592a.316.316 0 0 0-.317-.317h-1.596a.316.316 0 0 0-.317.317v1.592c0 .178.143.317.317.317ZM15.073 12.946h-1.596a.317.317 0 0 0-.316.317v1.592c0 .175.141.317.316.317h1.596a.317.317 0 0 0 .317-.317v-1.592a.317.317 0 0 0-.317-.317ZM4.779 8.092H3.186a.314.314 0 0 0-.317.316v1.593c0 .174.14.317.317.317h1.593A.316.316 0 0 0 5.095 10V8.408a.314.314 0 0 0-.316-.316ZM7.771 8.092H6.178a.317.317 0 0 0-.316.316v1.593c0 .175.141.317.316.317h1.593A.317.317 0 0 0 8.088 10V8.408a.317.317 0 0 0-.317-.316Z" fill="#000"/>
    <path d="M18.683 16.714h-1.637V7.737a.318.318 0 0 0-.316-.317h-4.244V2.537a.905.905 0 0 0 .792-.893v-.538c0-.5-.405-.906-.906-.906H1.577a.908.908 0 0 0-.906.906v.538c0 .46.349.836.792.893v14.177H.317a.318.318 0 0 0-.317.317v1.466c0 .177.142.317.317.317h18.366c.175 0 .317-.14.317-.317v-1.466a.318.318 0 0 0-.317-.317Zm-14.487-4.79a.316.316 0 0 0-.317.316v4.474H2.096V2.55h9.757v4.87H8.829a.318.318 0 0 0-.317.317v4.186H4.196Zm12.217-3.87v8.66H9.145v-8.66h7.268Z" fill="#000"/>
</svg>
